!!!COM: Beethoven, Ludwig van
!!!CDT: 1770///-1827///
!!!OTL: Piano Sonata no. 11 in B-flat major
!!!OPS: 22
!!!OMV: 2
!!!OMD: Adagio con molt' espressione
**kern	**kern	**dynam
*staff2	*staff1	*staff1/2
*clefF4	*clefG2	*clefG2
*k[b-e-a-]	*k[b-e-a-]	*k[b-e-a-]
*E-:	*E-:	*E-:
*M9/8	*M9/8	*M9/8
*MM60	*MM60	*MM60
=1-	=1-	=1-
8E-'\ 8G'\ (8B-'\L	4r	pp
8E-'\ 8G'\ 8B-'\	.	.
8E-'\ 8G'\ 8B-'\J)	8r	.
8E-'\ 8G'\ (8B-'\L	4r	.
8E-'\ 8G'\ 8B-'\	.	.
8E-'\ 8G'\ 8B-'\J)	8r	.
8E-'\ 8G'\ (8B-'\L	(8g/L	pp
.	a-q/	.
8E-'\ 8G'\ 8B-'\	16g/L	.
.	16f/	.
8E-'\ 8G'\ 8B-'\J)	16g/	.
.	16a-/JJ)	.
=2	=2	=2
8E-\ 8G\ 8B-\L	(4.an\	.
8E-\ 8G\ 8B-\	.	.
8E-\ 8G\ 8B-\J	.	.
8E-\ 8G\ 8B-\L	[4.b-\)	.
8E-\ 8G\ 8B-\	.	.
8E-\ 8G\ 8B-\J	.	.
8E-\ 8G\ 8B-\L	(8b-\L]	.
.	ccq/	.
8E-\ 8G\ 8B-\	16b-\L	.
.	16an\	.
8E-\ 8G\ 8B-\J	16b-\	.
.	16bn\JJ)	.
=3	=3	=3
8D\ 8A-\ 8B-\L	(4bn\	.
8D\ 8A-\ 8B-\	.	.
8D\ 8A-\ 8B-\J	16.dd\LL	.
.	32cc\JJk)	.
8D\ 8A-\ 8B-\L	[4.f/	.
8D\ 8A-\ 8B-\	.	.
8D\ 8A-\ 8B-\J	.	.
8D\ 8A-\ 8B-\L	(8f/L]	.
.	gq/	.
8D\ 8A-\ 8B-\	16f/L	.
.	16en/	.
8D\ 8A-\ 8B-\J	16f/	.
.	16g/JJ)	.
=4	=4	=4
8D\ 8F\ 8A-\ 8B-\L	[4.a-/	.
8D\ 8F\ 8A-\ 8B-\	.	.
8D\ 8F\ 8A-\ 8B-\J	.	.
8D\ 8F\ 8A-\ 8B-\L	(16a-/LL]	.
.	16g/	.
8D\ 8F\ 8A-\ 8B-\	16f/	.
.	16en/	.
8D\ 8F\ 8A-\ 8B-\J	16f/	.
.	16g/JJ	.
8D\ 8F\ 8A-\ 8B-\L	16a-/LL	.
.	16b-/	.
8D\ 8F\ 8A-\ 8B-\	16cc/	.
.	16bn/	.
8D\ 8F\ 8A-\ 8B-\J	16cc/	.
.	16a-/JJ)	.
=5	=5	=5
8E-\ 8A-\ 8B-\L	(4.f#/	.
8E-\ 8A-\ 8B-\	.	.
8E-\ 8A-\ 8B-\J	.	.
8E-\ 8G\ 8B-\L	[4.g/)	.
8E-\ 8G\ 8B-\	.	.
8E-\ 8G\ 8B-\J	.	.
(8E-/L	(16g/LL]	.
.	16e-/	.
8BB-/	16g/	.
.	16b-/	.
8AA-/J)	16ee-/)	.
.	16gg/JJ	.
=6	=6	=6
8GG/L	[4.bb-\	<
8GG/ 8BB-/ 8E-/	.	.
8GG/ 8BB-/ 8E-/J	.	.
8GG/ 8BB-/ 8E-/L	(8bb-\L]	.
8GG/ 8BB-/ 8E-/	8gg\	.
8GG/ 8BB-/ 8E-/J	8ee-\J	.
8GG/ 8BB-/ 8E-/L	8b-/L	.
8GG/ 8BB-/ 8E-/	8g/	.
8GG/ 8BB-/ 8E-/J	8e-/J)	.
=7	=7	=7
8AA-/ 8C/ 8E-/L	4.c/	.
8AA-/ 8C/ 8E-/	.	.
8AA-/ 8C/ 8E-/J	.	.
8AA-/ 8C/ 8En/L	[4.ccc\	.
8AA-/ 8C/ 8E/	.	.
8AA-/ 8C/ 8E/J	.	.
8AA-/ 8C/ 8F/L	(8ccc\L]	.
8AA-/ 8C/ 8F/	16bb-\L	.
.	16aa-\	.
8AA-/ 8C/ 8F/J	16gg\	.
.	16ff\JJ)	.
=8	=8	=8
8BB-\ 8E-\ 8G\L	(8ff\	.
8BB-\ 8E-\ 8G\	[4ee-\)	.
8BB-\ 8E-\ 8G\J	.	.
8BB-\ 8E-\ 8G\L	8ee-\L]	.
8BB-\ 8E-\ 8G\	(8ee-'\	.
8BB-\ 8E-\ 8G\J	8ee-'\J)	.
8BB-\ 8F\ 8A-\L	(8ee-\L	>
.	16ddq/LL	.
.	16ee-q/JJ	.
8BB-\ 8F\ 8A-\	8ff\	.
8BB-\ 8F\ 8A-\J	8dd\J)	.
=9	=9	=9
*^	*^	*
4r	4E-\ 4G\	4.r	(8ee-\L	p
.	.	.	8b-\)	.
8r	8r	.	8b-'\J	.
4r	4r	4.r	(8b-\L	.
.	.	.	8cc\	.
8r	8r	.	8a-\J)	.
(4B-/	4.BB-\	(8g/L	4e-\	.
.	.	8a-/	.	.
8A-/)	.	8f/J)	8d\	.
=10	=10	=10	=10	=10
4G/	4E-\	4.r	(8e-/L	.
.	.	.	8B-/)	.
8r	8r	.	8B-'/J	.
4r	4.r	4.r	(8B-/L	.
.	.	.	8c/	.
8r	.	.	8A-/J)	.
*	*	*v	*v	*
*	*	*clefF4	*clefF4
*	*	*^	*
4BBB-/ (4BB-/	4.r	(8G/L	4E-\	.
.	.	F16q/LL	.	.
.	.	G16q/JJ	.	.
.	.	8A-/	.	.
8AA-/	.	8F/J)	8D\	.
*v	*v	*	*	*
*	*v	*v	*
=11	=11	=11
(4EE-/ 4GG/)	4E-\	.
8BBB-/ 8AA-/	8D\ 8F\	.
4EE-/ 4GG/	4E-\	.
8BBB-/ 8AA-/	8D\ 8F\	.
4EE-/ 4GG/	4E-\	.
8BBB-/) 8AA-/	8D\ 8F\ 8B-\	.
=12	=12	=12
[4.EE-/ (4.AA-/	4.D\ 4.F\ (4.B-\	pp
4EE-/] 4GG/)	4E-\)	.
8r	8r	.
*	*clefG2	*clefG2
=	=	=
4r	(8G/L	p
.	8B-/	.
8r	8e-/J)	.
=13	=13	=13
(8EE-/L	[4.G/ [4.B-/ [4.e-/ [4.g/	.
8GG/	.	.
8BB-/J	.	.
8E-\L	8G/] 8B-/] 8e-/] 8g/L]	.
8G\	8B-/ 8e-/ 8g/	.
8B-\J	8e-/ 8g/J	.
4BB-\ 4B-\	8e-/ (8g/L	.
.	8fq/L	.
.	8gq/J	.
.	8f/ 8a-/	.
8BB-\ 8A-\)	8B-/ 8d/ 8f/J)	.
=14	=14	=14
[4.E-\ (4.A-\	[4.B-/ 4.d/ (4.f/	.
4E-\] 4G\)	4B-/] 4e-/)	.
8r	8r	.
4r	(8G/ 8B-/L	.
.	8B-/ 8e-/	.
8r	8e-/) 8g/J	.
=15	=15	=15
*	*^	*
(8EE-/L	[4.b-/	[4.g\	<
8GG/	.	.	.
8BB-/J	.	.	.
8E-\L	(8b-/L]	4.g\_	.
8G\	8ee-'/	.	.
8B-\J	8ee-'/J)	.	.
8e-\L	8ee-'/L	8g\] 8b-\L	.
8c\	8ee-'/	8g-\ 8an\	.
8B-\J)	8ee-'/J	8g-\ 8b-\J	.
=16	=16	=16	=16
(4.An\	4.cc/ 4.ee-/	(4g-\	.
.	.	8f\)	.
4.A\	8r	8r	.
.	(4cc/ 4ee-/	8g-\L	>
.	.	8f\J)	.
4.B-\	8r	8r	.
.	4b-/ 4dd-/	8g-\L	.
.	.	8f\J	.
=17	=17	=17	=17
4.E-\	8r	8r	.
.	8dd-/L	4e-\ 4g-\	.
.	8cc-/J	.	.
4.En\	8r	8r	.
.	8cc-/L	4d-\ 4gn\	.
.	8b-/J	.	.
4.F\)	8r	8r	.
.	8b-/L	4cn\ 4e-\	.
.	8an/J	.	.
=18	=18	=18	=18
*^	*	*	*
8BBB-/L	[2.BBB-\	4b-/	4dn\	.
8BB-/	.	.	.	.
8BB-/J	.	8r	8r	.
8BB-/L	.	4.r	4r	.
8BB-/	.	.	.	.
8BB-/J	.	.	8r	.
8BB-/L	4.BBB-\]	4.r	(4ddn\	.
8BB-/	.	.	.	.
8BB-/J	.	.	16cc\LL	.
.	.	.	16b-\JJ)	.
=19	=19	=19	=19	=19
4c/	8BB-\L	8e-/ (8b-/L	4r	.
.	8BB-\	8an/	.	.
16B-/LL	8BB-\J	16g/L	8e-\	.
16An/JJ	.	16f/JJ	.	.
(4A/	8BB-\L	[4.f/)	[4.e-\	.
.	8BB-\	.	.	.
16G/LL	8BB-\J	.	.	.
16F/JJ)	.	.	.	.
(8.F/L	8BB-\L	(8f/L]	4.e-\]	.
.	8BB-\	8g/	.	.
16E-/L	.	.	.	.
16D/	8BB-\J	8a/J)	.	.
16E-/JJ)	.	.	.	.
*	*	*v	*v	*
=20	=20	=20	=20
4D/	8BB-\L	(8b-\L	.
.	8BB-\	16b-\L	.
.	.	16cc\	.
8r	8BB-\J	16dd\	.
.	.	16ee-\JJ)	.
.	.	ddq/	.
4.r	8BB-\L	(4.ff\	.
.	8BB-\	.	.
.	8BB-\J	.	.
4.r	8BB-\L	16een\LL	.
.	.	16ff\	.
.	8BB-\	16gg\	.
.	.	16ff\	.
.	8BB-\J	16ee-\	.
.	.	16dd\JJ)	.
=21	=21	=21	=21
*	*	*^	*
4.r	8BB-\L	8dd/L	(4e-\ 4g\	.
.	8BB-\	8cc/	.	.
.	8BB-\J	16b-/L	16d\ 16f\LL	.
.	.	16a-/JJ	16c\) 16e-\JJ	.
4r	8BB-\L	(4a-/	4c\ 4e-\	.
.	8BB-\	.	.	.
16B-/LL	8BB-\J	16g/LL	8e-\	.
16An/JJ	.	16f/JJ	.	.
(16A/LL	8BB-\L	(8f/L)	4.e-\	.
16G/	.	.	.	.
16F/	8BB-\	8g/	.	.
16E-/	.	.	.	.
16D/	8BB-\J	8a-/J)	.	.
16C/JJ	.	.	.	.
*v	*v	*	*	*
*	*v	*v	*
=22	=22	=22
4BB-/)	8d/ 8b-/	.
.	8cc#\L	p
8r	8dd\J	.
4D\ 4F\ 4B-\	8r	.
.	8een\L	.
*clefG2	*	*
8r	8ff\J	.
4d/ 4f/ 4b-/	8r	.
.	8aan\L	.
8r	8bb-\J	.
=23	=23	=23
4e-/ 4g/ 4b-/	8r	.
.	(8ff#\L	.
*clefF4	*	*
8r	8gg\J)	.
4G\ 4B-\ 4e-\	8r	.
.	(8dd\L	.
8r	8ee-\J)	.
4En\ 4B-\ 4c\	8r	.
.	(8bn\L	.
8r	8cc\J)	.
=24	=24	=24
*^	*	*
8F/L	2.F\	8r	.
8B-/ 8d/	.	[4ff\	<
8B-/ 8d/J	.	.	.
8B-/ 8d/L	.	(16ff\LL]	.
.	.	32gg\L	.
.	.	32aan\	.
8B-/ 8d/	.	32bb-\	.
.	.	32ccc\	.
.	.	32ddd\	.
.	.	32eee-\JJ)	.
8B-/ 8d/J	.	[8fff\J	.
8An/ 8e-/L	4.F\	(8fff\L]	>
8A/ 8e-/	.	8eee-\	.
8A/ 8e-/J	.	8ccc\J)	.
=25	=25	=25	=25
4d/	4B-\	[8bb-\L	p
.	.	32bb-\LL]	.
.	.	32aan\	.
.	.	32ddd\	.
.	.	32ccc\	.
8r	8r	32bb-\	.
.	.	32aa\	.
.	.	32gg\	.
.	.	32ff\JJJ	.
4.r	4r	32een\LLL	.
.	.	32ff\	.
.	.	32bb-\	.
.	.	32aa\JJ	.
.	.	32gg\LL	.
.	.	32ff\	.
.	.	32ee-\	.
.	.	32dd\JJ	.
.	8r	32cc#\LL	.
.	.	32dd\	.
.	.	32gg\	.
.	.	32ff\JJJ	.
4.r	4r	32ee-\LLL	.
.	.	32dd\	.
.	.	32ccn\	.
.	.	32b-\	.
.	.	32an\	.
.	.	32b-\	.
.	.	32ee-\	.
.	.	32dd\	.
.	8r	32cc\	.
.	.	32b-\	.
.	.	32a\	.
.	.	32g\JJJ	.
=26	=26	=26	=26
8FF/L	2.FF\	32en\LLL	<
.	.	32f\	.
.	.	32f#\	.
.	.	32g\JJ	.
8BB-/ 8D/	.	32a-\LL	.
.	.	32an\	.
.	.	32b-\	.
.	.	32bn\JJ	.
8BB-/ 8D/J	.	32cc\LL	.
.	.	32cc#\	.
.	.	32dd\	.
.	.	32ee-\JJJ	.
8BB-/ 8D/L	.	32een\LLL	.
.	.	32ff\	.
.	.	32ff#\	.
.	.	32gg\	.
8BB-/ 8D/	.	32aa-\	.
.	.	32aan\	.
.	.	32bb-\	.
.	.	32bbn\	.
8BB-/ 8D/J	.	(40cccn\	.
.	.	40ccc#\	.
.	.	40ddd\	.
.	.	40eee-\	.
.	.	40eeen\JJJ)	.
8AAn/ 8E-/L	4.FF\	[8fff\L	.
8C/ 8E-/	.	32fff\LL]	.
.	.	(32eee-\	.
.	.	32cccn\	.
.	.	32aan\	.
8C/ 8E-/J	.	32ff#\	.
.	.	32ee-\	.
.	.	32cc#\	.
.	.	32an\JJJ)	.
=27	=27	=27	=27
*	*	*^	*
2.r	(8BB-\L	4.r	4b-\	p
.	8D\	.	.	.
.	8F\J	.	8r	.
.	8B-\L	4r	4r	.
.	8d\	.	.	.
.	8en\J)	8cc#/	(8b-\	.
4r	4f\	(8cc#/L)	4b-\	.
.	.	8dd/J	.	.
(16.c/LL	8F\	16.ee-/LL	8an\	.
32e-/JJk)	.	32ccn/JJk)	.	.
=28	=28	=28	=28	=28
2.r	(8BBB-/L	4.r	4d/ 4b-/	.
.	8DD/	.	.	.
.	8FF/J	.	8r	.
.	8BB-/L	4r	4r	.
.	8D/	.	.	.
*	*	*v	*v	*
*	*	*clefF4	*clefF4
*	*	*^	*
.	8En/J	[8c#/	[8B-\	.
4r	4F/)	(8c#/L]	4B-\]	>
.	.	8d/	.	.
(8FF\	16.C/LL	16.e-/L	8An\	.
.	32E-/JJk	32cn/JJk)	.	.
=29	=29	=29	=29	=29
(8D/L	8BB-\)	8B-/L	8B-\	.
8.C/	4FF\	8.e-/	4An\	>
16E-/Jk)	.	16c/Jk	.	.
(8D/L	&(8BB-\&)	8B-/L	8B-\	.
8.C/	4FF\	8.e-/	4A\	>
16E-/Jk)	.	16c/Jk	.	.
(8D/L	&(8BB-\L&)	8B-/L	8B-\	.
16C/L	8FF\	16e-/L	8A\L	<
16BBn/	.	16d/	.	.
16C/	8FF\J	16e-/	8A\J	.
16E-/JJ)	.	16c/JJ	.	.
=30	=30	=30	=30	=30
(4.E-/	[4.BB-\	4.c/	(4.An\	p
4D/)	4BB-\]	4B-/)	4B-\	.
8r	8r	8r	8r	.
4r	4.r	4.r	4r	.
8r	.	.	8r	.
*v	*v	*	*	*
*	*v	*v	*
=31	=31	=31
(8GGG'/ 8GG'/L	4r	.
8GGG'/ 8GG'/	.	.
8GGG'/) 8GG'/J	8r	.
(8GGG'/ 8GG'/L	4r	.
8GGG'/ 8GG'/	.	.
8GGG'/) 8GG'/J	8r	.
*	*clefG2	*clefG2
(8GGG'/ 8GG'/L	(8Bn/L	pp
.	cq/	.
8GGG'/ 8GG'/	16B/L	.
.	16An/	.
8GGG'/) 8GG'/J	16B/	.
.	16c/JJ)	.
=32	=32	=32
(8GGG'/ 8GG'/L	[4.F/ [4.A-/ [4.Bn/ 4.c#/	.
8GGG'/ 8GG'/	.	.
(8GGG'/) 8GG'/J	.	.
8GGG/ 8GG/L	4F/] 4A-/] 4B/] 4d/	.
8GGG'/ 8GG'/	.	.
8GGG'/) 8GG'/J	8r	.
(8GGG'/ 8GG'/L	8r	.
8GGG'/ 8GG'/	(16d/LL	.
.	16c#/	.
8GGG'/) 8GG'/J	16d/	.
.	16e-/JJ)	.
=33	=33	=33
(8GGG'/ 8GG'/L	[4.A-/ [4.Bn/ [4.d/ (4.en/	pp
8GGG'/ 8GG'/	.	.
8GGG'/) 8GG'/J	.	.
(8GGG'/ 8GG'/L	4A-/] 4B/] 4d/] 4f/)	.
8GGG'/ 8GG'/	.	.
8GGG'/) 8GG'/J	8r	.
(8GGG'/ 8GG'/L	8r	.
8GGG'/ 8GG'/	(16Bn/ 16bn/LL	<
.	16An/ 16an/	.
8GGG'/) 8GG'/J	16B/ 16b/	.
.	16c/) 16cc/JJ	.
=34	=34	=34
8GGG/ 8GG/L	4.c#/ (4.cc#/	.
8GG/ 8BBn/ 8D/ 8F/	.	.
8GG/ 8BB/ 8D/ 8F/J	.	.
8GG/ 8BB/ 8D/ 8F/L	8d/ 8dd/)	.
.	(ee-q/	.
8GG/ 8BB/ 8D/ 8F/	(16dd\LL)	.
.	16cc#\	.
8GG/ 8BB/ 8D/ 8F/J	16dd\	.
.	16ee-\JJ	.
8GG/ 8BB/ 8D/ 8F/L	16ff\LL	.
.	16gg\	.
8GG/ 8BB/ 8D/ 8F/	16aa-\	.
.	16gg\	.
8GG/ 8BB/ 8D/ 8F/J	16aa-\	.
.	16ff\JJ)	.
=35	=35	=35
*	*^	*
8CC/ 8C/	(4.ff/	4r	.
8C\ 8G\ 8B-\L	.	.	.
8C\ 8G\ 8B-\J	.	8r	.
8C\ 8G\ 8B-\L	4een/)	[8g\L	.
8C\ 8G\ 8B-\	.	16g\L]	.
.	.	16f#\	.
8C\ 8G\ 8B-\J	8r	16g\	.
.	.	16an\JJ	.
8C\ 8G\ 8B-\L	4r	16b-\LL	.
.	.	16cc\	.
8C\ 8G\ 8B-\	.	16dd-\	.
.	.	16cc\	.
8C\ 8G\ 8B-\J	8r	16dd-\	.
.	.	16b-\JJ	.
=36	=36	=36	=36
8FF/ 8F/	4r	(4.b-\	.
8F\ 8c\ 8e-\L	.	.	.
8F\ 8c\ 8e-\J	8r	.	.
8F\ 8c\ 8e-\L	8cc/L	4an\)	.
.	(dd-q/	.	.
8F\ 8c\ 8e-\	16cc/L)	.	.
.	16bn/	.	.
8F\ 8c\ 8e-\J	16cc/	8r	.
.	16ddn/JJ	.	.
8F\ 8c\ 8e-\L	(16ee-/LL	4r	.
.	16ff/	.	.
8F\ 8c\ 8e-\	16gg-/	.	.
.	16ff/	.	.
8F\ 8c\ 8e-\J	16gg-/	8r	.
.	16ee-/JJ)	.	.
=37	=37	=37	=37
8BBB-/ 8BB-/	(4.ee-/	4r	.
8BB-\ 8F\ 8A-\L	.	.	.
8BB-\ 8F\ 8A-\J	.	8r	.
8BB-\ 8F\ 8A-\L	4dd/)	(8f\L	.
.	.	g-q/	.
8BB-\ 8F\ 8A-\	.	16f\L	.
.	.	16en\	.
8BB-\ 8F\ 8A-\J	8r	16f\	.
.	.	16gn\JJ	.
8BB-\ 8F\ 8A-\L	4r	16a-\LL	.
.	.	16b-\	.
8BB-\ 8F\ 8A-\	.	16cc-\	.
.	.	16b-\	.
8BB-\ 8F\ 8A-\J	8r	16cc-\	.
.	.	16a-\JJ)	.
=38	=38	=38	=38
8EE-/	4r	(4.a-\	.
8E-\ 8B-\ 8d-\L	.	.	.
8E-\ 8B-\ 8d-\J	8r	.	.
8E-\ 8B-\ 8d-\L	8b-/L	[4.g\)	.
.	(cc-q/	.	.
8E-\ 8B-\ 8d-\	16b-/L)	.	.
.	16an/	.	.
8E-\ 8B-\ 8d-\J	16b-/	.	.
.	16cc-/JJ	.	<
8E-\ 8B-\ 8d-\L	16dd-/LL	8g\L]	.
.	16ee-/	.	.
8E-'\ 8B-'\ 8d-'\	16ff-/	8g\	.
.	16ee-/	.	.
8E-\ 8B-\ 8d-\J	16ff-/	8g\J	.
.	16dd-/JJ	.	.
=39	=39	=39	=39
4E-\ 4c-\ 4e-\	16cc-/LL	4a-\	p
.	16dd-/	.	.
.	16ee-/	.	.
.	16dd-/	.	.
8r	16ee-/	8r	.
.	16cc-/JJ	.	.
16d-\LL	16b-/LL	4r	.
16e-\	16cc-/	.	.
16f-\	16dd-/	.	.
16e-\	16cc-/	.	.
16f-\	16dd-/	8r	.
16d-\JJ	16b-/JJ	.	.
16c-\LL	8r	16a-\LL	.
16d-\	.	16b-\	.
16e-\	8ee-/L	16cc-\	<
16d-\	.	16b-\	.
16e-\	8ee-/J	16cc-\	.
16c-\JJ	.	16a-\JJ	.
=40	=40	=40	=40
16B-\LL	(4ff-^/	16g\LL	.
16c-\	.	16a-\	.
16d-\	.	16b-\	.
16c-\	.	16a-\	.
16d-\	8ee-/)	16b-\	.
16B-\JJ	.	16g\JJ	.
16c-\LL	4r	16a-\LL	.
16d-\	.	16b-\	.
16e-\	.	16cc-\	.
16d-\	.	16b-\	.
16e-\	8r	16cc-\	.
16c-\JJ	.	16a-\JJ	.
16A-\LL	8r	16f\LL	.
16B-\	.	16g-\	.
16c-\	8ddn/L	16a-\	<
16B-\	.	16g-\	.
16c-\	8dd/J	16a-\	.
16A-\JJ	.	16f\JJ	.
=41	=41	=41	=41
16G-\LL	(4ee-/	16e-\LL	.
16A-\	.	16f\	.
16B-\	.	16g-\	.
16A-\	.	16f\	.
16B-\	8b-/)	16g-\	.
16G-\JJ	.	16e-\JJ	.
16F\LL	4r	16dn\LL	.
16G-\	.	16e-\	.
16A-\	.	16f\	.
16G-\	.	16e-\	.
16A-\	8r	16f\	.
16F\JJ	.	16d\JJ	.
16G-\LL	8r	16e-\LL	.
16A-\	.	16f\	.
16B-\	8b-/L	16g-\	<
16A-\	.	16f\	.
16B-\	8b-/J	16g-\	.
16G-\JJ	.	16e-\JJ	.
=42	=42	=42	=42
16D\LL	(4cc-/	16f\LL	>
16E-\	.	16g-\	.
16F\	.	16a-\	.
16E-\	.	16g-\	.
16F\	8b-/)	16a-\	.
16D\JJ	.	16f\JJ	.
16E-\LL	4r	16g-\LL	.
16F\	.	16a-\	.
16G-\	.	16b-\	.
16F\	.	16a-\	.
16G-\	8r	16b-\	.
16E-\JJ	.	16g-\JJ	.
16Cn\LL	8r	16e-\LL	.
16D\	.	16f\	.
16E-\	8an/L	16g-\	.
16D\	.	16f\	.
16E-\	8a/J	16g-\	.
16C-\JJ	.	16e-\JJ	.
=43	=43	=43	=43
*^	*	*	*
16BB-/LL	[2.BB-\	[2.b-/	16d\LL	<
16Cn/	.	.	16e-\	.
16D/	.	.	16f\	.
16C/	.	.	16e-\	.
16BB-/	.	.	16d\	.
16C/JJ	.	.	16e-\JJ	.
16D/LL	.	.	16f\LL	.
16E-/	.	.	16g-\	.
16F/	.	.	16a-\	.
16E-/	.	.	16g-\	.
16D/	.	.	16f\	.
16F/JJ	.	.	16a-\JJ	.
16E-/LL	8BB-\L]	8b-/L]	16g-\LL	.
16D/	.	.	16f\	.
16C/	8BB-\	8an/	16e-\	.
16D/	.	.	16f\	.
16E-/	8BB-\J	8a/J	16g-\	.
16C/JJ	.	.	16e-\JJ	.
=44	=44	=44	=44	=44
16D/LL	[2.BB-\	[2.b-/	16B-\LL	p
16E-/	.	.	16c\	.
16F/	.	.	16d\	.
16E-/	.	.	16c\	.
16D/	.	.	16B-\	.
16E-/JJ	.	.	16c\JJ	.
16F/LL	.	.	16d\LL	.
16G-/	.	.	16e-\	.
16A-/	.	.	16f\	.
16G-/	.	.	16e-\	.
16F/	.	.	16d\	.
16A-/JJ	.	.	16f\JJ	.
16G-/LL	8BB-\L]	8b-/L]	16e-\LL	.
16F/	.	.	16d\	.
16E-/	8BB-\	8an/	16c\	.
16F/	.	.	16d\	.
16G-/	8BB-\J	8a/J	16e-\	.
16E-/JJ	.	.	16c\JJ	.
*v	*v	*	*	*
=45	=45	=45	=45
4BB-\ 4D\ 4F\	4b-/	16B-\LL	.
.	.	16c\	.
.	.	16d\	.
.	.	16c#\	.
8r	8r	16d\	.
.	.	16B-\JJ	.
4r	4r	16d\LL	<
.	.	16en\	.
.	.	16f\	.
.	.	16e\	.
8r	8r	16f\	.
.	.	16d\JJ	.
4r	4r	16f\LL	.
.	.	16g\	.
.	.	16a-\	.
.	.	16g\	.
8r	8r	16a-\	.
.	.	16f\JJ	.
*	*v	*v	*
=46	=46	=46
4.rr	(16a-\LL	pp
.	16bn\	.
.	16cc\	.
.	16b\	.
.	16dd\	.
.	16cc\JJ	.
4.ry	16b-/LL	.
.	16a-/	.
.	16g/	.
.	16f/	.
.	16en/	.
.	16f/JJ	.
4.ry	16g/LL	.
.	16f/	.
.	16a-/	.
.	16f/	.
.	16c/	.
.	16d/JJ)	.
=47	=47	=47
8EE-\L	4e-/	.
8E-'\ 8G'\ (8B-'\	.	.
8E-'\ 8G'\ 8B-'\J)	8r	.
8E-'\ 8G'\ (8B-'\L	4r	.
8E-'\ 8G'\ 8B-'\	.	.
8E-'\ 8G'\ 8B-'\J)	8r	.
8E-'\ 8G'\ (8B-'\L	(8g/L	.
.	a-q/	.
8E-'\ 8G'\ 8B-'\	16g/L	.
.	16f/	.
8E-'\ 8G'\ 8B-'\J)	16g/	.
.	16a-/JJ)	.
=48	=48	=48
8E-\ 8G\ 8B-\L	(4.an\	.
8E-\ 8G\ 8B-\	.	.
8E-\ 8G\ 8B-\J	.	.
8E-\ 8G\ 8B-\L	[4.b-\)	.
8E-\ 8G\ 8B-\	.	.
8E-\ 8G\ 8B-\J	.	.
8E-\ 8G\ 8B-\L	(8b-\L]	.
8E-\ 8G\ 8B-\	16b-\L	.
.	16an\	.
8E-\ 8G\ 8B-\J	16b-\	.
.	16bn\JJ)	.
=49	=49	=49
8D\ 8A-\ 8B-\L	4bn\	.
8D\ 8A-\ 8B-\	.	.
8D\ 8A-\ 8B-\J	16.dd\LL	.
.	32cc\JJk	.
8D\ 8A-\ 8B-\L	[4.f/	.
8D\ 8A-\ 8B-\	.	.
8D\ 8A-\ 8B-\J	.	.
8D\ 8A-\ 8B-\L	(8f/L]	.
.	gq/	.
8D\ 8A-\ 8B-\	16f/L	.
.	16en/	.
8D\ 8A-\ 8B-\J	16f/	.
.	16g/JJ)	.
=50	=50	=50
8D\ 8F\ 8A-\ 8B-\L	[4.a-/	.
8D\ 8F\ 8A-\ 8B-\	.	.
8D\ 8F\ 8A-\ 8B-\J	.	.
8D\ 8F\ 8A-\ 8B-\L	(32a-/LLL]	.
.	32g/	.
.	32f/	.
.	32en/	<
8D\ 8F\ 8A-\ 8B-\	32f/	.
.	32g/	.
.	32a-/	.
.	32b-/	.
8D\ 8F\ 8A-\ 8B-\J	32cc/	.
.	32dd/	.
.	32ee-/	.
.	32een/JJJ	.
8D\ 8F\ 8A-\ 8B-\L	32ff\LLL	.
.	32gg\	.
.	32aa-\	.
.	32bb-\	.
8D\ 8F\ 8A-\ 8B-\	32ccc\	.
.	32bbn\	.
.	32ddd\	.
.	32ccc\	.
8D\ 8F\ 8A-\ 8B-\J	32bb-\	.
.	32aa-\	.
.	32gg\	.
.	32ff\JJJ)	.
=51	=51	=51
8E-\ 8A-\ 8B-\L	(4.ff#\	p
8E-\ 8A-\ 8B-\	.	.
8E-\ 8A-\ 8B-\J	.	.
8E-\ 8G\ 8B-\L	[4.gg\)	.
8E-\ 8G\ 8B-\	.	.
8E-\ 8G\ 8B-\J	.	.
(8E-/L	(16gg\LL]	.
.	16e-\	.
8BB-/	16g\	.
.	16b-\	.
8AA-/J)	16ee-\	.
.	16gg\JJ)	.
=52	=52	=52
8GG/L	[4.bb-\	<
8GG/ 8BB-/ 8E-/	.	.
8GG/ 8BB-/ 8E-/J	.	.
8GG/ 8BB-/ 8E-/L	(16bb-\LL]	.
.	16ff#\	.
8GG/ 8BB-/ 8E-/	16gg\	.
.	16dd\	.
8GG/ 8BB-/ 8E-/J	16ee-\	.
.	16an\JJ	.
8GG/ 8BB-/ 8E-/L	16b-/LL	.
.	16f#/	.
8GG/ 8BB-/ 8E-/	16g/	.
.	16d/	.
8GG/ 8BB-/ 8E-/J	16e-/	.
.	16g/JJ)	.
=53	=53	=53
8AA-/ 8C/ 8E-/L	(8g/	.
8AA-/ 8C/ 8E-/	[4c/)	.
8AA-/ 8C/ 8E-/J	.	.
8AA-/ 8C/ 8En/L	(8c/]	.
8AA-/ 8C/ 8E/	[4cc\)	.
8AA-/ 8C/ 8E/J	.	.
8AA-/ 8C/ 8F/L	8cc\L]	.
8AA-/ 8C/ 8F/	(32ccc\LL	.
.	32bbn\	.
.	32ddd\	.
.	32ccc\	.
8AA-/ 8C/ 8F/J	32bb-\	.
.	32aa-\	.
.	32gg\	.
.	32ff\JJJ)	.
=54	=54	=54
8BB-\ 8E-\ 8G\L	(8ff\	.
8BB-\ 8E-\ 8G\	[4ee-\)	.
8BB-\ 8E-\ 8G\J	.	.
8BB-\ 8E-\ 8G\L	8ee-\L]	>
8BB-\ 8E-\ 8G\	(8ee-'\	.
8BB-\ 8E-\ 8G\J	8ee-'\J)	.
8BB-\ 8F\ 8A-\L	(8ee-\L	.
.	ddq16/LL	.
.	ee-q16/JJ	.
8BB-\ 8F\ 8A-\	8ff\	.
8BB-\ 8F\ 8A-\J	8dd\J)	.
=55	=55	=55
*^	*^	*
2.r	4E-\ 4G\	2.r	(8ee-\L	p
.	.	.	8b-\)	.
.	8r	.	8b-'\J	.
.	4r	.	(8b-\L	.
.	.	.	8cc\	.
.	8r	.	8a-\J)	.
(4B-/	4.BB-\	8g/L	4e-\	.
.	.	8a-/	.	.
8A-/)	.	8f/J	8d\	.
=56	=56	=56	=56	=56
4E-\ 4G\	2.r	2.r	(8e-/L	.
.	.	.	8B-/)	.
8r	.	.	8B-'/J	.
4r	.	.	(8B-/L	.
.	.	.	8c/	.
8r	.	.	8A-/J)	.
*	*	*clefF4	*clefF4	*
(4BB-/	4.BBB-\	(4E-\	8G/L	.
.	.	.	(Fq16/LL)	.
.	.	.	Gq16/JJ	.
.	.	.	8A-/)	.
8AA-/)	.	8D\	8F/J	.
*v	*v	*	*	*
*	*v	*v	*
=57	=57	=57
4EE-/ 4GG/	8E-\L	.
.	8G\	.
8r	8B-\J	.
*	*clefG2	*clefG2
4r	8G/L	<
.	8B-/	.
8r	8e-/J	.
4r	8B-/L	.
.	8e-/	.
8r	8g/J	.
=58	=58	=58
(8EE-/L	[4.G/ [4.B-/ [4.e-/ [4.g/	>
8GG/	.	.
8BB-/J	.	.
8E-\L	8G/] 8B-/] 8e-/] 8g/L]	.
8G\	8B-'/ 8e-'/ 8g'/	.
8B-\J)	8e-'/ 8g'/J	.
(4B-\	(8e-/ 8g/L	.
.	fq16/LL	.
.	gq16/JJ	.
.	8f/ 8a-/	.
8BB-\ 8A-\)	8B-/) 8d/ 8f/J	.
=59	=59	=59
[4.E-\ (4.A-\	[4.B-/ 4.d/ (4.f/	.
4E-\] 4G\)	4B-'/] 4e-'/)	.
8r	8r	.
4r	(8G-/ 8B-/L	.
.	8B-/ 8e-/	.
8r	8e-/) 8g-/J	.
=60	=60	=60
*	*^	*
(8EE-/L	[4.b-/	[4.g-\	<
8GG-/	.	.	.
8BB-/J	.	.	.
8E-\L	8b-/L]	4.g-\_ [4.b-\	.
8G-\	(8ee-'/	.	.
8B-\J	8ee-'/J)	.	.
8e-\L	8ee-/L	8g-\] 8b-\L]	.
8c-\	(8ee-'/	8a-\	.
8B-\J)	8ee-'/J)	8g-\ 8b-\J	.
=61	=61	=61	=61
(4.A-\	(4ee-/	4.f\ 4.cc-\	>
.	8dd-/)	.	.
4.F\	8r	8r	.
.	(8ee-/L	4a-\ 4cc-\	.
.	8dd-/J)	.	.
4.G-\)	8r	8r	.
.	8ee-/L	4g-\ 4b-\	.
.	8dd-/J	.	.
=62	=62	=62	=62
(4.C-/	8r	8r	.
.	8dd-/L	4e-\ 4a-\	pp
.	8cc-/J	.	.
4.D-/	8r	8r	.
.	8cc-/L	4d\ 4g-\	.
.	8b-/J	.	.
4.DD-/)	8r	8r	.
.	(8b-/L	4c-\ 4f\	.
.	8a-/J)	.	.
=63	=63	=63	=63
(4.DDn/	4.f/ 4.a-/	(4c-\	>
.	.	8B-\)	.
4.Dn\	8r	8r	.
.	4f/ 4a-/	8c-\L	.
.	.	8B-\J	.
4.E-\)	8r	8r	.
.	4e-/ 4g-/	8c-\L	.
.	.	8B-\J	.
*	*v	*v	*
=64	=64	=64
*^	*	*
8r	(4.AA-\	8r	.
4A-/ 4c-/	.	(8g-/L	pp
.	.	8f-/J)	.
8r	4.AAn\	8r	.
4G-/ 4cn/	.	(8f-/L	.
.	.	8e-/J)	.
8r	4.BB-\)	8r	.
4Fn/ 4A-/	.	(8e-/L	.
.	.	8d/J)	.
=65	=65	=65	=65
8EE-/L	[2.EE-\	4Gn/ 4e-/	.
8E-/	.	.	.
8E-/J	.	8r	.
8E-/L	.	4r	.
8E-/	.	.	.
8E-/J	.	8r	.
8E-/L	4.EE-\]	(4gg\	.
8E-/	.	.	.
8E-/J	.	16ff\LL	.
.	.	16ee-\JJ)	.
=66	=66	=66	=66
*	*	*^	*
4r	8E-\L	(8ee-/L	4f\ 4a-\	.
.	8E-\	8dd/	.	.
16e-/LL	8E-\J	16cc/L	8a-\	.
16d/JJ	.	16b-/JJ	.	.
(4d/	8E-\L	4.b-/)	(4.a-\	.
.	8E-\	.	.	.
16c/LL	8E-\J	.	.	.
16B-/JJ)	.	.	.	.
(8.B-/L	8E-\L	(8b-/L)	4.a-\	.
.	8E-\	8cc/	.	.
16A-/L	.	.	.	.
16G/	8E-\J	8dd/J)	.	.
16A-/JJ)	.	.	.	.
*	*	*v	*v	*
=67	=67	=67	=67
4G/	8E-\L	(8ee-\L	.
.	8E-\	16ee-\L	.
.	.	16ff\	.
8r	8E-\J	16gg\	.
.	.	16aa-\JJ)	.
.	.	(ggq/	.
4r	8E-\L	(4.bb-\)	.
.	8E-\	.	.
8r	8E-\J	.	.
4r	8E-\L	16aan\LL	.
.	.	16bb-\	.
.	8E-\	16ccc\	.
.	.	16bb-\	.
8r	8E-\J	16aa-\	.
.	.	16gg\JJ)	.
=68	=68	=68	=68
*	*	*^	*
4.r	8E-\L	(8gg/L	4a-\ 4cc\	.
.	8E-\	8ff/	.	.
.	8E-\J	16ee-/L	16g\ 16b-\LL	.
.	.	16dd/JJ	16f\ 16a-\JJ	.
4r	8E-\L	(4dd/)	4f\ 4a-\	.
.	8E-\	.	.	.
(16e-/LL	8E-\J	16cc/LL	8a-\	.
16d/JJ)	.	16b-/JJ)	.	.
(16d/LL	8E-\L	(8b-/L	4.a-\	.
16c/	.	.	.	.
16B-/	8E-\	8cc/	.	.
16A-/	.	.	.	.
16G/	8E-\J	8dd/J)	.	.
16F/JJ)	.	.	.	.
*v	*v	*	*	*
*	*v	*v	*
=69	=69	=69
4E-\	8g'\ 8ee-'\L	.
.	(8ff#\	.
8r	8gg\J)	.
4G\ 4B-\ 4e-\	8r	.
.	(8aan\L	.
8r	8bb-\J)	.
*clefG2	*	*
4g\ 4b-\ 4ee-\	8r	.
.	(8ddd\L	.
8r	8eee-\J)	.
=70	=70	=70
4a-\ 4cc\ 4ee-\	8r	.
.	(8bbn\L	.
8r	8ccc\J)	.
4A-/ 4c/ 4e-/	8r	.
.	(8bn\L	.
8r	8cc\J)	.
4An/ 4c/ 4e-/	8r	.
.	(8en/L	.
8r	8f/J)	.
=71	=71	=71
*^	*	*
8B-/L	2.r	8r	.
8e-/ 8g/	.	[4b-\	.
8g/J	.	.	.
8e-/ 8g/L	.	(16b-\LL]	.
.	.	32cc\L	.
.	.	32dd\	.
8e-/ 8g/	.	32ee-\	.
.	.	32ff\	.
.	.	32gg\	.
.	.	32aa-\JJ	.
8e-/ 8g/J	.	[8bb-\J)	.
8d/ 8a-/L	4.B-\	(8bb-\L]	>
8d/ 8a-/	.	8aa-\	.
8d/ 8a-/J	.	8ff\J)	.
*v	*v	*	*
=72	=72	=72
4e-/ 4g/	[8ee-\L	p
.	32ee-\LL]	.
.	32dd\	.
.	32gg\	.
.	32ff\	.
8r	32ee-\	.
.	32dd\	.
.	32cc\	.
.	32b-\JJJ	.
4r	32an\LLL	.
.	32b-\	.
.	32ee-\	.
.	32dd\	.
.	32cc\	.
.	32b-\	.
.	32a-\	.
.	32g\	.
8r	32f#\	.
.	32g\	.
.	32cc\	.
.	32b-\JJJ	.
4r	32a-/LLL	.
.	32g/	.
.	32fn/	.
.	32e-/	.
.	32d/	.
.	32e-/	.
.	32a-/	.
.	32g/	.
8r	32f/	.
.	32e-/	.
.	32d/	.
.	32c/JJJ	.
*clefF4	*	*
=73	=73	=73
*^	*	*
8BB-/L	2.BB-\	(32An/LLL	<
.	.	32B-/	.
.	.	32Bn/	.
.	.	32c/	.
8E-/ 8G/	.	32c#/	.
.	.	32d/	.
.	.	32e-/	.
.	.	32en/	.
8E-/ 8G/J	.	32f/	.
.	.	32f#/	.
.	.	32g/	.
.	.	32a-/JJJ	.
8E-/ 8G/L	.	32an\LLL	.
.	.	32b-\	.
.	.	32bn\	.
.	.	32ccn\	.
8E-/ 8G/	.	32cc#\	.
.	.	32dd\	.
.	.	32ee-\	.
.	.	32een\	.
8E-/ 8G/J	.	40ffn\	.
.	.	40ff#\	.
.	.	40gg\	.
.	.	40aa-\	.
.	.	40aan\JJJ)	.
8D/ 8A-/L	4.BB-\	[8bb-\L	.
8F/ 8A-/	.	(32bb-\LL]	.
.	.	32aa-\	.
.	.	32ff#\	.
.	.	32dd\	.
8F/ 8A-/J	.	32b\	.
.	.	32a\	.
.	.	32f#\	.
.	.	32d\JJJ)	.
=74	=74	=74	=74
*	*	*^	*
(8E-\L	2.r	4.r	4e-/	p
8G\	.	.	.	.
8B-\J	.	.	8r	.
*clefG2	*clefG2	*	*	*
8e-/L	.	4r	4r	.
8g/	.	.	.	.
8an/J)	.	8ff#/	([8ee-\	.
4b-/	4r	8ff#/L)	4ee-\]	.
.	.	8gg/	.	.
(16.f/LL	8B-\	16.aa-/L	8dd\	.
32a-/JJk)	.	32ffn/JJk	.	.
*clefF4	*clefF4	*	*	*
=75	=75	=75	=75	=75
(8EE-/L	2.r	4ee-/	4g\	.
8GG/	.	.	.	.
8BB-/J	.	8r	8r	.
8E-\L	.	4r	4r	.
8G\	.	.	.	.
8An\J	.	8f#/	([8e-\	>
4B-\)	4r	(8f#/L)	4e-\]	.
.	.	8g/	.	.
(16.F/LL	8BB-\	16.a-/L	8d\	.
32A-/JJk)	.	32fn/JJk)	.	.
=76	=76	=76	=76	=76
(8G/L	8E-\	8e-/L	8e-\	.
8.F/	4BB-\	8.a-/	(4d\	.
16A-/Jk)	.	16f/Jk	.	.
(8G/L	&(8E-\&)	8e-/L)	8e-\	.
8.F/	4BB-\	8.a-/	(4d\	.
&(16A-/Jk&))	.	16f/Jk	.	.
(8G/L	8E-\	8e-/L)	(8e-\	.
16F/L	8BB-\L	16a-/L	8A-\L	.
16En/	.	16g/	.	.
16F/	8BB-\J	16a-/	8A-\J	.
16D/JJ)	.	16f/JJ)	.	.
*	*	*v	*v	*
=77	=77	=77	=77
.	.	(e-q32/LL	.
.	.	fq32/	.
.	.	gq32/JJ	.
*	*	*^	*
(4.D/	[4.EE-\ [4.BB-\	(4.f/)	4.A-\	p
4E-/)	4EE-\] 4BB-\]	4e-/)	4G\	.
8r	8r	8r	8r	.
4r	4r	4r	4r	.
8r	8r	8r	8r	.
*v	*v	*	*	*
*	*v	*v	*
==	==	==
*-	*-	*-
!!!ENC: Craig Stuart Sapp
!!!END: 2008/11/05/
